client/public/img/guns/gun-hawk-01.svg

<?xml version="1.0" encoding="UTF-8"?>
<!DOCTYPE svg PUBLIC "-//W3C//DTD SVG 1.1//EN" "http://www.w3.org/Graphics/SVG/1.1/DTD/svg11.dtd">
<svg xmlns="http://www.w3.org/2000/svg" version="1.1" width="40px" height="266px" style="shape-rendering:geometricPrecision; text-rendering:geometricPrecision; image-rendering:optimizeQuality; fill-rule:evenodd; clip-rule:evenodd" xmlns:xlink="http://www.w3.org/1999/xlink">
<g><path style="opacity:0.999" fill="#030202" d="M 13.5,-0.5 C 17.8333,-0.5 22.1667,-0.5 26.5,-0.5C 26.5,12.5 26.5,25.5 26.5,38.5C 27.5,38.5 28.5,38.5 29.5,38.5C 29.5,41.1667 29.5,43.8333 29.5,46.5C 30.675,46.281 31.675,46.6143 32.5,47.5C 34.0426,51.4612 35.376,55.4612 36.5,59.5C 37.5,59.5 38.5,59.5 39.5,59.5C 39.5,60.8333 39.5,62.1667 39.5,63.5C 38.1667,64.5 38.1667,65.5 39.5,66.5C 39.5,67.8333 39.5,69.1667 39.5,70.5C 38.1667,71.1667 38.1667,71.8333 39.5,72.5C 39.5,73.8333 39.5,75.1667 39.5,76.5C 38.1667,77.1667 38.1667,77.8333 39.5,78.5C 39.5,79.8333 39.5,81.1667 39.5,82.5C 38.1667,83.5 38.1667,84.5 39.5,85.5C 39.5,86.5 39.5,87.5 39.5,88.5C 38.1667,89.5 38.1667,90.5 39.5,91.5C 39.5,92.8333 39.5,94.1667 39.5,95.5C 38.8501,95.8039 38.1835,96.1373 37.5,96.5C 36.6674,108.486 36.1674,120.486 36,132.5C 34.6667,135.833 33.3333,139.167 32,142.5C 30.9724,183.52 29.4724,224.52 27.5,265.5C 22.1667,265.5 16.8333,265.5 11.5,265.5C 9.62051,224.517 8.12051,183.517 7,142.5C 5.46982,138.91 4.13649,135.243 3,131.5C 2.83252,119.819 2.33252,108.152 1.5,96.5C 0.816537,96.1373 0.14987,95.8039 -0.5,95.5C -0.5,94.1667 -0.5,92.8333 -0.5,91.5C 0.833333,90.5 0.833333,89.5 -0.5,88.5C -0.5,87.5 -0.5,86.5 -0.5,85.5C 0.833333,84.5 0.833333,83.5 -0.5,82.5C -0.5,81.1667 -0.5,79.8333 -0.5,78.5C 0.833333,77.8333 0.833333,77.1667 -0.5,76.5C -0.5,75.1667 -0.5,73.8333 -0.5,72.5C 0.833333,71.8333 0.833333,71.1667 -0.5,70.5C -0.5,69.1667 -0.5,67.8333 -0.5,66.5C 0.833333,65.5 0.833333,64.5 -0.5,63.5C -0.5,62.1667 -0.5,60.8333 -0.5,59.5C 0.675044,59.719 1.67504,59.3857 2.5,58.5C 3.83333,54.8333 5.16667,51.1667 6.5,47.5C 7.32496,46.6143 8.32496,46.281 9.5,46.5C 9.5,43.8333 9.5,41.1667 9.5,38.5C 10.8333,38.5 12.1667,38.5 13.5,38.5C 13.5,25.5 13.5,12.5 13.5,-0.5 Z"/></g>
<g><path style="opacity:1" fill="#616161" d="M 13.5,56.5 C 17.7675,56.203 21.9341,56.5363 26,57.5C 26.8274,82.4057 26.6607,107.239 25.5,132C 21.2452,132.796 17.0785,132.629 13,131.5C 12.1771,106.428 12.3438,81.4277 13.5,56.5 Z"/></g>
<g><path style="opacity:1" fill="#080808" d="M 20.5,58.5 C 24.4193,57.7464 25.7527,59.0797 24.5,62.5C 21.5213,63.3563 20.188,62.0229 20.5,58.5 Z"/></g>
<g><path style="opacity:1" fill="#080809" d="M 14.5,58.5 C 15.8333,58.5 17.1667,58.5 18.5,58.5C 18.4652,64.0241 16.7985,64.6908 13.5,60.5C 13.8627,59.8165 14.1961,59.1499 14.5,58.5 Z"/></g>
<g><path style="opacity:1" fill="#080809" d="M 14.5,64.5 C 15.8333,64.5 17.1667,64.5 18.5,64.5C 18.4652,70.0241 16.7985,70.6908 13.5,66.5C 13.8627,65.8165 14.1961,65.1499 14.5,64.5 Z"/></g>
<g><path style="opacity:1" fill="#0d0d0d" d="M 20.5,64.5 C 24.1378,63.7366 25.6378,65.0699 25,68.5C 21.3307,70.0093 19.8307,68.6759 20.5,64.5 Z"/></g>
<g><path style="opacity:1" fill="#0b0b0c" d="M 14.5,70.5 C 17.9103,70.3838 19.2436,72.0504 18.5,75.5C 14.065,76.0776 12.7317,74.4109 14.5,70.5 Z"/></g>
<g><path style="opacity:1" fill="#060707" d="M 21.5,70.5 C 25.1612,70.3501 26.1612,71.8501 24.5,75C 20.7071,75.4866 19.7071,73.9866 21.5,70.5 Z"/></g>
<g><path style="opacity:1" fill="#0b0b0c" d="M 14.5,76.5 C 17.9103,76.3838 19.2436,78.0504 18.5,81.5C 14.065,82.0776 12.7317,80.4109 14.5,76.5 Z"/></g>
<g><path style="opacity:1" fill="#060707" d="M 21.5,76.5 C 25.1612,76.3501 26.1612,77.8501 24.5,81C 20.7071,81.4866 19.7071,79.9866 21.5,76.5 Z"/></g>
<g><path style="opacity:1" fill="#0c0c0c" d="M 14.5,83.5 C 15.8333,83.5 17.1667,83.5 18.5,83.5C 18.9899,85.9484 18.1566,87.615 16,88.5C 13.3894,87.5001 12.8894,85.8334 14.5,83.5 Z"/></g>
<g><path style="opacity:1" fill="#080809" d="M 21.5,83.5 C 25.1612,83.3501 26.1612,84.8501 24.5,88C 20.7071,88.4866 19.7071,86.9866 21.5,83.5 Z"/></g>
<g><path style="opacity:1" fill="#0c0c0c" d="M 14.5,89.5 C 15.8333,89.5 17.1667,89.5 18.5,89.5C 18.9899,91.9484 18.1566,93.615 16,94.5C 13.3894,93.5001 12.8894,91.8334 14.5,89.5 Z"/></g>
<g><path style="opacity:1" fill="#080809" d="M 21.5,89.5 C 25.1612,89.3501 26.1612,90.8501 24.5,94C 20.7071,94.4866 19.7071,92.9866 21.5,89.5 Z"/></g>
<g><path style="opacity:1" fill="#080809" d="M 15.5,95.5 C 18.0838,96.0483 19.0838,97.715 18.5,100.5C 13.5162,100.856 12.5162,99.1891 15.5,95.5 Z"/></g>
<g><path style="opacity:1" fill="#0b0b0b" d="M 21.5,95.5 C 25.1612,95.3501 26.1612,96.8501 24.5,100C 23.2068,100.49 21.8734,100.657 20.5,100.5C 20.366,98.7085 20.6993,97.0418 21.5,95.5 Z"/></g>
<g><path style="opacity:1" fill="#080809" d="M 15.5,101.5 C 18.0838,102.048 19.0838,103.715 18.5,106.5C 13.5162,106.856 12.5162,105.189 15.5,101.5 Z"/></g>
<g><path style="opacity:1" fill="#09090a" d="M 21.5,101.5 C 24.7643,101.726 25.7643,103.226 24.5,106C 23.2068,106.49 21.8734,106.657 20.5,106.5C 20.366,104.708 20.6993,103.042 21.5,101.5 Z"/></g>
<g><path style="opacity:1" fill="#0b0b0c" d="M 14.5,107.5 C 17.9103,107.384 19.2436,109.05 18.5,112.5C 14.065,113.078 12.7317,111.411 14.5,107.5 Z"/></g>
<g><path style="opacity:1" fill="#060707" d="M 21.5,107.5 C 25.1612,107.35 26.1612,108.85 24.5,112C 20.7071,112.487 19.7071,110.987 21.5,107.5 Z"/></g>
<g><path style="opacity:1" fill="#0b0b0c" d="M 14.5,113.5 C 17.9103,113.384 19.2436,115.05 18.5,118.5C 14.065,119.078 12.7317,117.411 14.5,113.5 Z"/></g>
<g><path style="opacity:1" fill="#060707" d="M 21.5,113.5 C 25.1612,113.35 26.1612,114.85 24.5,118C 20.7071,118.487 19.7071,116.987 21.5,113.5 Z"/></g>
<g><path style="opacity:1" fill="#0c0c0c" d="M 14.5,120.5 C 15.8333,120.5 17.1667,120.5 18.5,120.5C 18.9899,122.948 18.1566,124.615 16,125.5C 13.3894,124.5 12.8894,122.833 14.5,120.5 Z"/></g>
<g><path style="opacity:1" fill="#090909" d="M 21.5,120.5 C 25.1612,120.35 26.1612,121.85 24.5,125C 20.7071,125.487 19.7071,123.987 21.5,120.5 Z"/></g>
<g><path style="opacity:1" fill="#0c0c0c" d="M 14.5,126.5 C 15.8333,126.5 17.1667,126.5 18.5,126.5C 18.9899,128.948 18.1566,130.615 16,131.5C 13.3894,130.5 12.8894,128.833 14.5,126.5 Z"/></g>
<g><path style="opacity:1" fill="#090909" d="M 21.5,126.5 C 25.1612,126.35 26.1612,127.85 24.5,131C 20.7071,131.487 19.7071,129.987 21.5,126.5 Z"/></g>
<g><path style="opacity:1" fill="#2c2d2f" d="M 14.5,142.5 C 17.8333,142.5 21.1667,142.5 24.5,142.5C 24.5,155.167 24.5,167.833 24.5,180.5C 21.5,180.5 18.5,180.5 15.5,180.5C 15.5,179.5 15.5,178.5 15.5,177.5C 16.5,177.5 17.5,177.5 18.5,177.5C 18.5,173.833 18.5,170.167 18.5,166.5C 17.5,166.5 16.5,166.5 15.5,166.5C 14.0401,165.362 13.7068,157.362 14.5,142.5 Z"/></g>
<g><path style="opacity:1" fill="#050505" d="M 20.5,166.5 C 21.5,166.5 22.5,166.5 23.5,166.5C 23.665,169.85 23.4983,173.183 23,176.5C 22.586,176.957 22.086,177.291 21.5,177.5C 20.5108,173.893 20.1774,170.226 20.5,166.5 Z"/></g>
<g><path style="opacity:1" fill="#3b3b3b" d="M 15.5,186.5 C 18.1667,186.5 20.8333,186.5 23.5,186.5C 23.5,198.167 23.5,209.833 23.5,221.5C 20.8333,221.5 18.1667,221.5 15.5,221.5C 15.5,209.833 15.5,198.167 15.5,186.5 Z"/></g>
<g><path style="opacity:1" fill="#606060" d="M 18.5,228.5 C 20.4023,231.337 21.069,234.671 20.5,238.5C 20.8297,244.868 20.4963,251.202 19.5,257.5C 18.5016,247.856 18.1682,238.19 18.5,228.5 Z"/></g>
<g><path style="opacity:1" fill="#2d2e2e" d="M 18.5,228.5 C 19.209,227.596 20.209,227.263 21.5,227.5C 21.815,231.371 21.4816,235.038 20.5,238.5C 21.069,234.671 20.4023,231.337 18.5,228.5 Z"/></g>
</svg>

<svg width="40" height="266" xmlns="http://www.w3.org/2000/svg" style="shape-rendering:geometricPrecision;text-rendering:geometricPrecision;image-rendering:optimizeQuality;fill-rule:evenodd;clip-rule:evenodd" viewBox="0 0 40 266"><path fill="#030202" d="M13.5-.5h13v39h3v8q1.763-.329 3 1a127 127 0 0 1 4 12h3v4q-2 1.5 0 3v4q-2 1 0 2v4q-2 1 0 2v4q-2 1.5 0 3v3q-2 1.5 0 3v4q-.974.456-2 1a650 650 0 0 0-1.5 36l-4 10a5340 5340 0 0 1-4.5 123h-16a6647 6647 0 0 1-4.5-123 108 108 0 0 1-4-11 615 615 0 0 0-1.5-35 44 44 0 0 0-2-1v-4q2-1.5 0-3v-3q2-1.5 0-3v-4q2-1 0-2v-4q2-1 0-2v-4q2-1.5 0-3v-4q1.763.329 3-1l4-11q1.237-1.329 3-1v-8h4z" style="opacity:.999"/><path fill="#616161" d="M13.5 56.5q6.4-.446 12.5 1 1.24 37.359-.5 74.5-6.383 1.194-12.5-.5a947 947 0 0 1 .5-75" style="opacity:1"/><path fill="#080808" d="M20.5 58.5q5.88-1.13 4 4-4.468 1.284-4-4" style="opacity:1"/><path fill="#080809" d="M14.5 58.5h4q-.052 8.285-5 2 .544-1.026 1-2" style="opacity:1"/><path fill="#080809" d="M14.5 64.5h4q-.052 8.285-5 2 .544-1.025 1-2" style="opacity:1"/><path fill="#0d0d0d" d="M20.5 64.5q5.457-1.145 4.5 4-5.505 2.265-4.5-4" style="opacity:1"/><path fill="#0b0b0c" d="M14.5 70.5q5.116-.175 4 5-6.652.866-4-5" style="opacity:1"/><path fill="#060707" d="M21.5 70.5q5.492-.225 3 4.5-5.69.73-3-4.5" style="opacity:1"/><path fill="#0b0b0c" d="M14.5 76.5q5.116-.175 4 5-6.652.866-4-5" style="opacity:1"/><path fill="#060707" d="M21.5 76.5q5.492-.225 3 4.5-5.69.73-3-4.5" style="opacity:1"/><path fill="#0c0c0c" d="M14.5 83.5h4q.735 3.672-2.5 5-3.915-1.5-1.5-5" style="opacity:1"/><path fill="#080809" d="M21.5 83.5q5.492-.225 3 4.5-5.69.73-3-4.5" style="opacity:1"/><path fill="#0c0c0c" d="M14.5 89.5h4q.735 3.672-2.5 5-3.915-1.5-1.5-5" style="opacity:1"/><path fill="#080809" d="M21.5 89.5q5.492-.225 3 4.5-5.69.73-3-4.5m-6 6q3.876.822 3 5-7.476.534-3-5" style="opacity:1"/><path fill="#0b0b0b" d="M21.5 95.5q5.492-.225 3 4.5a8.4 8.4 0 0 1-4 .5q-.2-2.687 1-5" style="opacity:1"/><path fill="#080809" d="M15.5 101.5q3.876.822 3 5-7.476.534-3-5" style="opacity:1"/><path fill="#09090a" d="M21.5 101.5q4.896.339 3 4.5a8.4 8.4 0 0 1-4 .5q-.2-2.687 1-5" style="opacity:1"/><path fill="#0b0b0c" d="M14.5 107.5q5.116-.175 4 5-6.652.867-4-5" style="opacity:1"/><path fill="#060707" d="M21.5 107.5q5.492-.225 3 4.5-5.69.73-3-4.5" style="opacity:1"/><path fill="#0b0b0c" d="M14.5 113.5q5.116-.175 4 5-6.652.867-4-5" style="opacity:1"/><path fill="#060707" d="M21.5 113.5q5.492-.225 3 4.5-5.69.73-3-4.5" style="opacity:1"/><path fill="#0c0c0c" d="M14.5 120.5h4q.735 3.672-2.5 5-3.915-1.5-1.5-5" style="opacity:1"/><path fill="#090909" d="M21.5 120.5q5.492-.225 3 4.5-5.69.73-3-4.5" style="opacity:1"/><path fill="#0c0c0c" d="M14.5 126.5h4q.735 3.672-2.5 5-3.915-1.5-1.5-5" style="opacity:1"/><path fill="#090909" d="M21.5 126.5q5.492-.225 3 4.5-5.69.73-3-4.5" style="opacity:1"/><path fill="#2c2d2f" d="M14.5 142.5h10v38h-9v-3h3v-11h-3q-2.19-1.707-1-24" style="opacity:1"/><path fill="#050505" d="M20.5 166.5h3a50.4 50.4 0 0 1-.5 10 3.65 3.65 0 0 1-1.5 1 31.1 31.1 0 0 1-1-11" style="opacity:1"/><path fill="#3b3b3b" d="M15.5 186.5h8v35h-8z" style="opacity:1"/><path fill="#606060" d="M18.5 228.5q2.853 4.256 2 10a91 91 0 0 1-1 19 211 211 0 0 1-1-29" style="opacity:1"/><path fill="#2d2e2e" d="M18.5 228.5q1.063-1.356 3-1 .473 5.807-1 11 .853-5.744-2-10" style="opacity:1"/></svg>
